brandFactory_export/2.Regular/Servicio tecnico telefonia fija_2Regular.svg

<?xml version="1.0" encoding="UTF-8"?>
<svg width="24px" height="24px" viewBox="0 0 24 24" version="1.1" xmlns="http://www.w3.org/2000/svg" xmlns:xlink="http://www.w3.org/1999/xlink">
    <title>2.Regular/Servicio tecnico telefonia fija_2Regular</title>
    <g id="Symbols" stroke="none" stroke-width="1" fill="none" fill-rule="evenodd">
        <g id="2.Regular/Servicio-tecnico-telefonia-fija_2Regular" fill="#5CB615" fill-rule="nonzero">
            <path d="M4.77647059,0.0336134454 C5.79495798,0.0537815126 6.80336134,0.551260504 7.77142857,1.51932773 C8.13781513,1.8789916 8.45378151,2.28235294 8.71932773,2.72268908 C9.23697479,3.55966387 9.42521008,4.42352941 9.28067227,5.28739496 C9.13613445,6.1512605 8.6487395,7.00168067 7.84201681,7.80840336 C7.65378151,8 7.45546219,8.17478992 7.24369748,8.3394958 C7.15630252,8.48739496 7.26386555,8.87058824 7.51932773,9.33445378 C7.76240331,9.77152237 8.13386855,10.2833495 8.64502395,10.8868859 L13.9596639,5.57310924 C13.9731092,5.19327731 14.0134454,4.82016807 14.0806723,4.44705882 C14.2689076,3.41848739 14.6420168,2.61848739 15.1865546,2.07394958 C15.7277311,1.53277311 16.5109244,1.16302521 17.5226891,0.974789916 C17.9529412,0.894117647 18.389916,0.850420168 18.8268908,0.843697479 L18.8268908,0.843697479 C19.4890756,0.847058824 20.0436975,1.2 20.2756303,1.76470588 C20.507563,2.32941176 20.3630252,2.97142857 19.8991597,3.43529412 L19.8991597,3.43529412 L19.2672269,4.06722689 L19.3142857,4.38991597 L19.6403361,4.43697479 L20.2722689,3.79831933 C20.5848739,3.48235294 20.9848739,3.31092437 21.3915966,3.31092437 C21.8957983,3.31092437 22.3663866,3.57647059 22.6285714,4.01008403 C22.7831933,4.26890756 22.8638655,4.56470588 22.8606051,4.86386555 C22.8537815,5.2907563 22.8134454,5.7210084 22.7361345,6.14117647 C22.5512605,7.1697479 22.1781513,7.9697479 21.6336134,8.51428571 C21.092437,9.05210084 20.3092437,9.42184874 19.297479,9.61008403 C18.9142857,9.68067227 18.5277311,9.72436975 18.1378151,9.73781513 L18.1378151,9.73781513 L12.8136421,15.0630995 C13.4527283,15.6071408 13.9906182,15.9955616 14.4436975,16.2420168 C14.887395,16.4840336 15.2571429,16.5815126 15.4016807,16.497479 C15.5663866,16.2857143 15.7411765,16.087395 15.9327731,15.8991597 C16.7394958,15.092437 17.589916,14.605042 18.4537815,14.4605042 C19.3176471,14.3159664 20.1815126,14.5008403 21.0184874,15.0218487 C21.4588235,15.2840336 21.8621849,15.6033613 22.2218487,15.9663866 C23.189916,16.9344538 23.6907563,17.9394958 23.707563,18.9613445 C23.7277311,20.0168067 23.2302521,21.0857143 22.2319328,22.1310924 C21.8823529,22.497479 21.3915966,22.8504202 21.2336134,22.9647059 L21.2134454,22.9781513 C21.2033613,22.9848739 21.1932773,22.9915966 21.1831933,23.0016807 C20.5344538,23.4487395 19.7210084,23.6840336 18.7663866,23.7008403 C18.7226891,23.7042017 18.6857143,23.7042017 18.6453782,23.7042017 C17.7579832,23.7042017 16.7697479,23.5193277 15.707563,23.1495798 C13.6097302,22.4230576 11.304704,21.0122521 8.99135567,19.049744 C8.97506699,19.3695967 8.93746536,19.6847984 8.88067227,20 C8.69243697,21.0252101 8.31932773,21.8252101 7.77478992,22.3697479 C7.23361345,22.9109244 6.45042017,23.2806723 5.43865546,23.4689076 C5.00840336,23.5495798 4.57142857,23.5932773 4.13109244,23.6 L4.13109244,23.6 C3.46890756,23.6 2.91428571,23.2470588 2.68235294,22.6823529 C2.45042017,22.1176471 2.59495798,21.4789916 3.05882353,21.0151261 L3.05882353,21.0151261 L3.69747899,20.3831933 L3.65042017,20.0571429 L3.32436975,20.010084 L2.69243697,20.6420168 C2.37983193,20.9579832 1.97983193,21.1294118 1.57310924,21.1294118 C1.06581504,21.1294185 0.595418124,20.8642625 0.332773109,20.4302521 C0.178151261,20.1747899 0.0974789917,19.8789916 0.100739415,19.5798319 C0.107563025,19.1529412 0.14789916,18.7226891 0.225210084,18.302521 C0.410084034,17.2739496 0.783193277,16.4739496 1.32773109,15.9294118 C1.86890756,15.3915966 2.65546218,15.0218487 3.66386555,14.8336134 C4.04705882,14.7630252 4.43697479,14.7193277 4.82689076,14.7058824 L4.66479959,14.7155905 C2.7069659,12.4040674 1.30165308,10.0978687 0.578151261,8.00336134 C0.198319328,6.90084034 0.0168067228,5.8789916 0.0336134455,4.96806723 C0.0537815127,4.01680672 0.28907563,3.20672269 0.732773109,2.56134454 L0.752941177,2.53109244 L0.766386555,2.51092437 C0.884033614,2.34957983 1.23697479,1.86218487 1.60336134,1.51260504 C2.65210084,0.51092437 3.7210084,0.0134453782 4.77647059,0.0336134454 Z M18.6722689,15.7882353 C18.087395,15.8890756 17.4857143,16.2453782 16.8773109,16.8537815 C16.7058824,17.0218487 16.5478992,17.2033613 16.4033613,17.3915966 C16.3798319,17.4184874 16.3563025,17.4453782 16.3327731,17.4689076 C16.097479,17.6840336 15.687395,17.9294118 15.0554622,17.8621849 C14.6789916,17.8218487 14.2655462,17.6773109 13.7983193,17.4252101 C13.2462766,17.1243337 12.6066678,16.6605437 11.8588872,16.0179895 L9.85507452,18.0200687 C12.0419918,19.878783 14.2025113,21.2043081 16.1478992,21.8789916 C17.9798319,22.5142857 19.4890756,22.5243697 20.4,21.902521 L20.4403361,21.8756303 C20.8033613,21.6134454 21.0789916,21.3882353 21.2537815,21.2033613 C22,20.4235294 22.3697479,19.6773109 22.3596639,18.9882353 C22.3462185,18.3193277 21.989916,17.6436975 21.2672269,16.9210084 C20.9882353,16.6352941 20.6756303,16.3865546 20.3327731,16.1815126 L20.312605,16.1714286 C19.7512605,15.8218487 19.2168067,15.697479 18.6722689,15.7882353 Z M18.8302521,2.18823529 C18.7663866,2.18823529 16.9647059,2.19495798 16.1344538,3.02184874 C15.3641457,3.79215686 15.3056022,5.41262838 15.3011944,5.67735761 L15.3008403,5.71428571 C15.3008403,5.9394958 15.1731092,6.25546218 15.0117647,6.41680672 L15.0117647,6.41680672 L5.67394958,15.7579832 C5.51260504,15.9159664 5.19663866,16.0470588 4.97142857,16.0470588 L4.97142857,16.0470588 L4.91121058,16.0477462 C4.59823672,16.0544296 3.03061746,16.1256851 2.27563025,16.8806723 C1.50532213,17.6509804 1.44677731,19.2714519 1.4423692,19.5361811 L1.44201514,19.5731092 C1.44201514,19.7109244 1.49243697,19.7848739 1.56638655,19.7848739 C1.61344538,19.7848739 1.67394958,19.7546218 1.73445378,19.6941176 L1.73445378,19.6941176 L2.55462185,18.8739496 C2.69579832,18.7327731 2.95798319,18.6352941 3.1697479,18.6352941 C3.19663866,18.6352941 3.22689076,18.6386555 3.25378151,18.6420168 L3.25378151,18.6420168 L4.42689076,18.810084 C4.65210084,18.8436975 4.8605042,19.0521008 4.89411765,19.2773109 L4.89411765,19.2773109 L5.06218487,20.4504202 C5.09579832,20.6756303 4.99159664,20.9882353 4.8302521,21.1495798 L4.8302521,21.1495798 L4.01344538,21.9663866 C3.85210084,22.1243697 3.9092437,22.2588235 4.13445378,22.2588235 C4.19495798,22.2588235 5.99663866,22.2521008 6.82352941,21.4252101 C7.59383754,20.654902 7.65238095,19.0344304 7.65678883,18.7697012 L7.65714286,18.7327731 C7.65714286,18.507563 7.78487395,18.1915966 7.94621849,18.0302521 L7.94621849,18.0302521 L17.2941176,8.69243697 C17.4521008,8.53445378 17.7680672,8.40336134 17.9932773,8.40336134 L17.9932773,8.40336134 L18.0141816,8.40325636 C18.211968,8.40122635 19.8947753,8.36068688 20.6857143,7.5697479 C21.4560224,6.79943978 21.5145672,5.17896825 21.5189753,4.91423903 L21.5193294,4.87731092 C21.5193294,4.7394958 21.4689076,4.66554622 21.394958,4.66554622 C21.3478992,4.66554622 21.287395,4.69243697 21.2268908,4.75630252 L21.2268908,4.75630252 L20.410084,5.57310924 C20.2689076,5.71428571 20.0067227,5.81176471 19.794958,5.81176471 C19.7680672,5.81176471 19.7378151,5.80840336 19.7109244,5.80504202 L19.7109244,5.80504202 L18.5378151,5.63697479 C18.312605,5.60336134 18.1042017,5.39495798 18.0705882,5.1697479 L18.0705882,5.1697479 L17.902521,3.99663866 C17.8689076,3.77142857 17.9731092,3.45882353 18.1344538,3.29747899 L18.1344538,3.29747899 L18.9512605,2.48067227 C19.112605,2.31932773 19.0554622,2.18823529 18.8302521,2.18823529 Z M4.75294118,1.37815126 C4.06386555,1.36470588 3.31764706,1.73781513 2.53781513,2.48403361 C2.35294118,2.65882353 2.12773109,2.93445378 1.86554622,3.29747899 L1.83529412,3.33781513 C1.22016807,4.24537815 1.22352941,5.74453782 1.85210084,7.5697479 C2.51944575,9.50808152 3.83829793,11.6626718 5.68761067,13.8457727 L7.69153815,11.838809 C7.08452326,11.1282382 6.64008181,10.5174841 6.34621849,9.98655462 C6.08067227,9.5092437 5.92941176,9.08907563 5.88235294,8.70588235 C5.80504202,8.0605042 6.05378151,7.64033613 6.27226891,7.40168067 C6.29579832,7.37478992 6.32268908,7.3512605 6.34957983,7.33109244 C6.54117647,7.18655462 6.71932773,7.02857143 6.8907563,6.85714286 C7.49915966,6.2487395 7.85546219,5.64705882 7.95630252,5.06218487 C8.04705882,4.5210084 7.92268908,3.98319328 7.57310924,3.42184874 L7.56302521,3.40168067 C7.35798319,3.05882353 7.1092437,2.74621849 6.82352941,2.46722689 C6.09747899,1.74789916 5.42184874,1.39159664 4.75294118,1.37815126 Z" id="Servicio-tecnico-telefonia-fija_2Regular"></path>
        </g>
    </g>
</svg>

<svg width="24" height="24" viewBox="0 0 24 24" xmlns="http://www.w3.org/2000/svg"><path d="M4.776.034c1.019.02 2.027.517 2.995 1.485.367.36.683.763.948 1.204.518.837.706 1.7.562 2.564-.145.864-.632 1.715-1.439 2.521a5.978 5.978 0 01-.598.531c-.088.148.02.532.275.995.243.438.615.95 1.126 1.553l5.315-5.314a7.9 7.9 0 01.12-1.126c.189-1.029.562-1.829 1.107-2.373.54-.541 1.324-.911 2.336-1.1.43-.08.867-.124 1.304-.13.662.003 1.217.356 1.449.92.232.565.087 1.207-.377 1.671l-.632.632.047.323.326.047.632-.639a1.579 1.579 0 011.12-.487c.504 0 .974.265 1.237.7.154.258.235.554.232.853a7.767 7.767 0 01-.125 1.277c-.185 1.029-.558 1.829-1.102 2.373-.542.538-1.325.908-2.337 1.096-.383.07-.77.114-1.16.128l-5.323 5.325c.639.544 1.177.933 1.63 1.179.443.242.813.34.958.255.164-.211.34-.41.53-.598.807-.807 1.658-1.294 2.522-1.438.864-.145 1.728.04 2.564.56.44.263.844.582 1.204.945.968.968 1.469 1.973 1.486 2.995.02 1.056-.478 2.125-1.476 3.17-.35.366-.84.72-.998.834l-.02.013a.185.185 0 00-.03.024c-.65.447-1.463.682-2.418.699-.043.003-.08.003-.12.003-.888 0-1.876-.185-2.938-.554-2.098-.727-4.403-2.138-6.717-4.1a7.49 7.49 0 01-.11.95c-.189 1.025-.562 1.825-1.106 2.37-.541.54-1.325.91-2.336 1.099-.43.08-.868.124-1.308.131-.662 0-1.217-.353-1.449-.918-.232-.564-.087-1.203.377-1.667l.638-.632-.047-.326-.326-.047-.632.632a1.579 1.579 0 01-1.119.487 1.45 1.45 0 01-1.24-.699 1.612 1.612 0 01-.232-.85c.007-.427.047-.857.124-1.277.185-1.03.558-1.83 1.103-2.374.54-.537 1.327-.907 2.336-1.095.383-.071.773-.115 1.163-.128l-.162.01C2.707 12.404 1.302 10.098.578 8.003.198 6.901.017 5.88.034 4.968c.02-.951.255-1.761.699-2.407l.02-.03.013-.02c.118-.161.471-.649.837-.998C2.653.51 3.721.013 4.776.033zm13.896 15.754c-.585.101-1.186.457-1.795 1.066-.171.168-.33.35-.474.538l-.07.077c-.236.215-.646.46-1.278.393-.376-.04-.79-.185-1.257-.437-.552-.3-1.191-.764-1.94-1.407L9.856 18.02c2.187 1.859 4.348 3.184 6.293 3.859 1.832.635 3.341.645 4.252.024l.04-.027c.363-.263.639-.488.814-.673.746-.78 1.116-1.526 1.106-2.215-.014-.669-.37-1.344-1.093-2.067a4.62 4.62 0 00-.934-.74l-.02-.01c-.562-.35-1.096-.474-1.64-.383zm.158-13.6c-.064 0-1.865.007-2.696.834-.77.77-.828 2.39-.833 2.655v.037c0 .225-.128.541-.29.703l-9.337 9.341a1.16 1.16 0 01-.703.29h-.06c-.313.006-1.88.078-2.635.833-.77.77-.83 2.39-.834 2.655v.037c0 .138.05.212.124.212.047 0 .108-.03.168-.09l.82-.821a.953.953 0 01.616-.239c.027 0 .057.004.084.007l1.173.168a.588.588 0 01.467.467l.168 1.173a.92.92 0 01-.232.7l-.817.816c-.16.158-.104.293.121.293.061 0 1.863-.007 2.69-.834.77-.77.828-2.39.833-2.655v-.037c0-.225.128-.541.29-.703l9.347-9.338c.158-.158.474-.289.7-.289h.02c.198-.002 1.88-.042 2.672-.833.77-.77.829-2.391.833-2.656v-.037c0-.138-.05-.211-.124-.211-.047 0-.108.026-.168.09l-.817.817a.953.953 0 01-.615.239.708.708 0 01-.084-.007l-1.173-.168a.588.588 0 01-.467-.467l-.168-1.173a.92.92 0 01.231-.7l.817-.816c.162-.162.104-.293-.12-.293zm-14.077-.81c-.69-.013-1.435.36-2.215 1.106-.185.175-.41.45-.672.813l-.03.04c-.616.908-.612 2.408.016 4.233.667 1.938 1.986 4.093 3.836 6.276l2.004-2.007c-.607-.71-1.052-1.322-1.346-1.852-.265-.478-.417-.898-.464-1.281-.077-.645.172-1.066.39-1.304a.506.506 0 01.078-.07c.191-.145.37-.303.54-.475.61-.608.965-1.21 1.066-1.795.091-.541-.033-1.079-.383-1.64l-.01-.02a4.62 4.62 0 00-.74-.935c-.726-.72-1.401-1.075-2.07-1.089z" fill="#5CB615" fill-rule="nonzero"/></svg>
